X: 194
T: Come Back to Erin
N:"Slow" "collected by J. O'Neill"
B:O'Neill's 194
Z:Transcribed by henrik.norbeck@mailbox.swipnet.se
M:C
L:1/8
K:Gmix
G2 c>B c2 ^F>G|B2 A>F A2 G2|E2 F>G A3 A|A2 d>c (Bc/B/) (A_A)|
G2 c>B c2 ^F>G|B2 A>F A2 {BA}G2|E2 F>G A2 B>c|d2 AB c3 z"fine"||
E2 c>B A2 ^D>E|F2 E>D D2 C2|B,2 B>A G2 ^F>E|G2 ^F>F E3 z|
E2 {d}c>B A2 ^D>E|F2 E>^G B2 A2|c2 A>^F d2 BG|D^DE^F G3 F"D.C."||


